source/icon/register.svg

<svg width="72" height="72" viewBox="0 0 72 72" fill="none" xmlns="http://www.w3.org/2000/svg">
<rect width="72" height="72" fill="white"/>
<circle cx="27" cy="19" r="14" fill="#475497"/>
<path fill-rule="evenodd" clip-rule="evenodd" d="M58 49C65.7319 49 72 42.732 72 35C72 27.268 65.7319 21 58 21C50.268 21 44 27.268 44 35C44 36.1576 44.1404 37.2823 44.4053 38.3581C47.3091 40.8091 49.6887 43.8618 51.3517 47.3238C53.3295 48.393 55.5938 49 58 49ZM56.792 25.8599L60.7768 26.2086L60.1667 33.1819L67.14 33.792L66.7914 37.7768L59.818 37.1667L59.208 44.1401L55.2232 43.7914L55.8333 36.8181L48.8599 36.208L49.2085 32.2232L56.1819 32.8333L56.792 25.8599Z" fill="#475497"/>
<path d="M51 57.8229C51 70.4276 40.2548 66.3815 27 66.3815C13.7452 66.3815 3 70.4276 3 57.8229C3 45.2181 13.7452 35 27 35C40.2548 35 51 45.2181 51 57.8229Z" fill="#475497"/>
</svg>

<svg fill="none" height="72" width="72" xmlns="http://www.w3.org/2000/svg"><path d="m0 0h72v72h-72z" fill="#fff"/><g fill="#475497"><circle cx="27" cy="19" r="14"/><path clip-rule="evenodd" d="m58 49c7.732 0 14-6.268 14-14s-6.268-14-14-14-14 6.268-14 14c0 1.158.14 2.282.405 3.358a27.098 27.098 0 0 1 6.947 8.966 13.938 13.938 0 0 0 6.648 1.676zm-1.208-23.14 3.985.349-.61 6.973 6.973.61-.349 3.985-6.973-.61-.61 6.973-3.985-.349.61-6.973-6.973-.61.349-3.985 6.973.61z" fill-rule="evenodd"/><path d="m51 57.823c0 12.605-10.745 8.559-24 8.559s-24 4.046-24-8.56c0-12.603 10.745-22.822 24-22.822s24 10.218 24 22.823z"/></g></svg>
